X: 28403
T: Mulhaire's
R: reel
M: 4/4
K: Dmajor
|:DC|B2,DB, G,B,DB,|C2EC G,CEG|FADF ADFD|GFGA BADC|
B2,DB G,B3,|CE3 GE3|DFAB cAFG|AGGF G2:|
|:Bc|d2BG dGBG|dGBG AGDG|AGAB cBcd|eA(3AAA eAce|
d2BG dGBG|dGBG AGED|B,A,B,D CEGE|DB,CA,G,2:|

